X:163
T:Rakish Paddy (reel)  
B:CRE1.145 (Padraic Reice)
F:file ID: cre.1/163rakish
S:Willie Clancy
N:Willie's version is not quite today's "session standard" version
of this tune.
M:C
L:1/8
Q:180
R:reel
K:G
"D modal"
c3B c2AB|(3cBA BG EGG2|Addc d2 (3gfe|dcAG FDD2|
dAAB c3e|dAAG FDD2|D2D2 ABcA|dcAG FDD2|
"9"cAAB cAAB|cAGE EDD2|Ad (3efe dcAd|dcAG (3EFG AB|
c3B cBAB|(3cBA BG EGG2|D2D2 AB (3=cBA|dcAG FDD2||
"17"egg2 agg2|egg2 edcd|eaa2 baa2|eaa2 ed (3Bcd|
egg2 af(3gfe|fdec defg|af (3gfe fdec|dcAG FDD2|
"25"egg2 agg2|egg2 ed (3Bcd|eaa2 b2ag|eaa2 ed (3Bcd|
egg2 eaa2|gedc defg|a2 (3gfe fd (3edc|dcAG FDD2|]

%%%

